icons/fill-ele-office-doc-s-order.svg

<svg xmlns="http://www.w3.org/2000/svg" width="32px" height="32px" viewBox="0 0 32 32" version="1.1">
    <title>fill-ele-office-doc-s-order</title>
    <g id="fill-ele-office-doc-s-order" stroke-width="1" fill-rule="evenodd">
        <path d="M9,4 L9,7 C9,7.55228475 9.44771525,8 10,8 L22,8 C22.5522847,8 23,7.55228475 23,7 L23,4 L27,4 C27.5522847,4 28,4.44771525 28,5 L28,29 C28,29.5522847 27.5522847,30 27,30 L5,30 C4.44771525,30 4,29.5522847 4,29 L4,5 C4,4.44771525 4.44771525,4 5,4 L9,4 Z M21,20 L11,20 C10.4477153,20 10,20.4477153 10,21 C10,21.5522847 10.4477153,22 11,22 L21,22 C21.5522847,22 22,21.5522847 22,21 C22,20.4477153 21.5522847,20 21,20 Z M21,14 L11,14 C10.4477153,14 10,14.4477153 10,15 C10,15.5522847 10.4477153,16 11,16 L21,16 C21.5522847,16 22,15.5522847 22,15 C22,14.4477153 21.5522847,14 21,14 Z M20,2 C20.5522847,2 21,2.44771525 21,3 L21,5 C21,5.55228475 20.5522847,6 20,6 L12,6 C11.4477153,6 11,5.55228475 11,5 L11,3 C11,2.44771525 11.4477153,2 12,2 L20,2 Z" id="&#24418;&#29366;" />
    </g>
</svg>

<svg xmlns="http://www.w3.org/2000/svg" viewBox="0 0 32 32"><path fill="currentColor" d="M9 4v3a1 1 0 0 0 1 1h12a1 1 0 0 0 1-1V4h4a1 1 0 0 1 1 1v24a1 1 0 0 1-1 1H5a1 1 0 0 1-1-1V5a1 1 0 0 1 1-1zm12 16H11a1 1 0 0 0 0 2h10a1 1 0 0 0 0-2m0-6H11a1 1 0 0 0 0 2h10a1 1 0 0 0 0-2M20 2a1 1 0 0 1 1 1v2a1 1 0 0 1-1 1h-8a1 1 0 0 1-1-1V3a1 1 0 0 1 1-1z"/></svg>
